svg/eject.svg

<svg xmlns="http://www.w3.org/2000/svg" viewBox="0 0 64 55" enable-background="new 0 0 64 55"><style type="text/css">.st0{fill:#343434;}</style><title>eject</title><desc>Created with Sketch.</desc><path class="st0" d="M60 47h-56c-2.2 0-4 1.8-4 4s1.8 4 4 4h56c2.2 0 4-1.8 4-4s-1.8-4-4-4zM1 39h62c.6 0 .7-.3.4-.8l-29.5-36.9c-1-1.3-2.7-1.3-3.7 0l-29.6 36.9c-.3.5-.1.8.4.8zm31-30.4l19.5 24.4h-39l19.5-24.4z"/></svg>

<?xml version="1.0" encoding="utf-8"?>
<!-- Generator: Adobe Illustrator 21.0.0, SVG Export Plug-In . SVG Version: 6.00 Build 0)  -->
<svg version="1.1" id="Layer_1" xmlns="http://www.w3.org/2000/svg" xmlns:xlink="http://www.w3.org/1999/xlink" x="0px" y="0px"
	 viewBox="0 0 64 55" style="enable-background:new 0 0 64 55;" xml:space="preserve">
<style type="text/css">
	.st0{fill:#343434;}
</style>
<title>eject</title>
<desc>Created with Sketch.</desc>
<g>
	<path class="st0" d="M60,47H4c-2.2,0-4,1.8-4,4s1.8,4,4,4h56c2.2,0,4-1.8,4-4S62.2,47,60,47z"/>
	<path class="st0" d="M1,39h62c0.6,0,0.7-0.3,0.4-0.8L33.9,1.3c-1-1.3-2.7-1.3-3.7,0L0.6,38.2C0.3,38.7,0.5,39,1,39z M32,8.6
		L51.5,33h-39L32,8.6z"/>
</g>
</svg>
